public/assets/apply/stepper/llc.svg

<svg width="74" height="74" viewBox="0 0 74 74" fill="none" xmlns="http://www.w3.org/2000/svg">
<path d="M7.22656 0.21331C6.51836 0.444557 5.3043 1.68753 5.0875 2.42464C4.95742 2.88714 4.91406 10.2293 4.91406 34.6262V66.2207H4.14805C1.67656 66.2207 0 67.825 0 70.2098C0 71.0192 0.0722656 71.3805 0.375781 71.9731C0.809375 72.8403 1.76328 73.6496 2.60156 73.8809C2.96289 73.9821 14.6844 74.011 37.3035 73.9965C69.6641 73.9532 71.4996 73.9387 71.9332 73.693C72.627 73.3317 73.4219 72.4789 73.7254 71.7996C74.1301 70.918 74.0867 69.386 73.6531 68.4465C73.0172 67.0735 71.5719 66.2207 69.852 66.2207H69.0859L69.057 49.036L69.0137 31.8512L68.5656 31.2875C67.6695 30.1746 68.3633 30.2324 56.9164 30.2324H46.6836V16.5309C46.6836 3.07503 46.6691 2.82932 46.3801 2.19339C45.9898 1.3262 45.4551 0.776985 44.5879 0.372292L43.8652 0.0254211L25.7988 0.0398712C13.0656 0.0543289 7.58789 0.0976868 7.22656 0.21331ZM43.952 2.75706L44.3711 3.1762V16.7043V30.2324H39.3559H34.3551L33.7336 30.5938C33.3 30.8539 33.0254 31.1719 32.7508 31.7067L32.375 32.4582V45.3504C32.375 58.1703 32.375 58.2282 32.6785 58.6184C33.0543 59.0953 33.9504 59.1532 34.3984 58.7051C34.6875 58.416 34.6875 58.2282 34.6875 45.6539C34.6875 37.8782 34.7453 32.8196 34.832 32.6895C34.9477 32.5016 36.8844 32.4727 50.5859 32.4293C61.2812 32.4149 66.2965 32.4438 66.4844 32.5449C66.7734 32.7039 66.7734 32.9641 66.7734 49.4551V66.2207H50.7305H34.6875V64.3418C34.6875 62.6508 34.6586 62.434 34.3984 62.1739C33.9504 61.7258 33.0543 61.7836 32.6785 62.2606C32.4039 62.6074 32.375 62.8387 32.375 64.4285V66.2207H19.8008H7.22656V34.6985V3.1762L7.6457 2.75706L8.06484 2.33792H25.7988H43.5328L43.952 2.75706ZM70.8203 68.75C71.9766 69.3426 72.0055 70.9758 70.8637 71.5539C70.4156 71.7852 3.58437 71.7852 3.13633 71.5539C2.61602 71.2793 2.3125 70.8024 2.3125 70.2242C2.3125 69.516 2.50039 69.1692 3.07852 68.8223C3.52656 68.5332 4.11914 68.5332 36.9711 68.5332C66.3543 68.5332 70.4445 68.5621 70.8203 68.75Z" fill="#4A4A4A"/>
<path d="M11.7648 6.68833C11.1723 6.86176 10.4496 7.68559 10.334 8.29262C10.2762 8.55278 10.2617 9.95473 10.2906 11.4C10.334 14.2762 10.3773 14.4063 11.3312 15.1145C11.6926 15.3891 11.9672 15.418 14.4242 15.4614C17.5605 15.5192 18.023 15.418 18.7023 14.5797L19.1504 14.0161V11.0387C19.1504 7.72895 19.1215 7.61333 18.1531 6.91958C17.734 6.61606 17.5461 6.60161 14.959 6.5727C13.4559 6.55825 12.0105 6.60161 11.7648 6.68833ZM16.9102 11.0098V13.1778H14.7422H12.5742V11.0098V8.84184H14.7422H16.9102V11.0098Z" fill="#4A4A4A"/>
<path d="M22.5469 6.86172C21.4773 7.42539 21.3906 7.74336 21.3906 11.0098C21.3906 14.2906 21.4773 14.6086 22.5469 15.1578C23.1395 15.4613 23.3707 15.4902 25.8133 15.4902C28.2559 15.4902 28.4727 15.4613 29.0508 15.1578C30.1492 14.5797 30.2215 14.2906 30.1781 10.8652C30.1348 7.51211 30.0914 7.38203 28.9641 6.81836C28.4437 6.5582 28.0969 6.5293 25.7699 6.5293C23.3418 6.5293 23.125 6.5582 22.5469 6.86172ZM27.8945 11.0098V13.1777H25.7988H23.7031V11.0098V8.8418H25.7988H27.8945V11.0098Z" fill="#4A4A4A"/>
<path d="M33.8781 6.68833C33.2856 6.86176 32.5629 7.68559 32.4473 8.29262C32.3895 8.55278 32.375 9.95473 32.4039 11.4C32.4473 14.2762 32.4906 14.4063 33.4445 15.1145C33.8059 15.3891 34.0805 15.418 36.5375 15.4614C39.6738 15.5192 40.1363 15.418 40.8156 14.5797L41.2637 14.0161V11.0387C41.2637 7.72895 41.2348 7.61333 40.2664 6.91958C39.8473 6.61606 39.6594 6.60161 37.0723 6.5727C35.5692 6.55825 34.1238 6.60161 33.8781 6.68833ZM39.0234 11.0098V13.1778H36.8555H34.6875V11.0098V8.84184H36.8555H39.0234V11.0098Z" fill="#4A4A4A"/>
<path d="M11.3746 20.4332C10.4062 20.9969 10.2617 21.5316 10.2617 24.5379C10.2617 27.4863 10.4207 28.1078 11.3023 28.6426C11.7359 28.9027 12.025 28.9316 14.7422 28.9316C17.6617 28.9316 17.7195 28.9316 18.2398 28.5703C19.1215 27.9633 19.2516 27.3996 19.1938 24.2633C19.1504 21.2859 19.107 21.1414 18.0664 20.4332C17.6184 20.1297 17.4594 20.1152 14.7566 20.1152C12.1117 20.1152 11.8805 20.1441 11.3746 20.4332ZM16.9102 24.5234V26.6191H14.7422H12.5742V24.5234V22.4277H14.7422H16.9102V24.5234Z" fill="#4A4A4A"/>
<path d="M22.5469 20.3609C22.2723 20.5055 21.8965 20.8379 21.723 21.1125C21.4051 21.575 21.3906 21.734 21.3906 24.509C21.3906 27.1539 21.4195 27.4574 21.6797 27.891C22.2723 28.8594 22.5758 28.9316 25.7988 28.9316C28.4293 28.9316 28.7328 28.9027 29.1664 28.6426C30.1203 28.05 30.207 27.7465 30.207 24.5957C30.207 21.4883 30.1203 21.098 29.2965 20.491C28.9207 20.2164 28.6605 20.1875 25.9723 20.1441C23.4141 20.1152 22.9949 20.1441 22.5469 20.3609ZM27.8945 24.5234V26.6191H25.7988H23.7031V24.5234V22.4277H25.7988H27.8945V24.5234Z" fill="#4A4A4A"/>
<path d="M33.4879 20.4332C32.5195 20.9969 32.375 21.5316 32.375 24.5379C32.375 27.4863 32.534 28.1078 33.4156 28.6426C33.8492 28.9027 34.1383 28.9316 36.8555 28.9316C40.2953 28.9316 40.5555 28.8594 41.0613 27.6887C41.3359 27.0961 41.3504 26.7781 41.307 24.3066C41.2637 21.2859 41.2203 21.1414 40.1797 20.4332C39.7316 20.1297 39.5727 20.1152 36.8699 20.1152C34.225 20.1152 33.9937 20.1441 33.4879 20.4332ZM39.0234 24.5234V26.6191H36.8555H34.6875V24.5234V22.4277H36.8555H39.0234V24.5234Z" fill="#4A4A4A"/>
<path d="M11.3457 33.9758C10.4062 34.5394 10.334 34.7851 10.2906 37.8636C10.2473 40.4363 10.2617 40.6965 10.5363 41.2601C10.7387 41.6793 11.0422 41.9972 11.418 42.214C11.9672 42.5176 12.1117 42.532 14.8723 42.4886C17.5172 42.4453 17.7918 42.4164 18.1531 42.1418C19.107 41.4336 19.1504 41.3035 19.1937 38.3261C19.2371 35.8547 19.2227 35.5367 18.948 34.9441C18.4422 33.7734 18.182 33.7011 14.7422 33.7011C12.1117 33.7011 11.7359 33.7301 11.3457 33.9758ZM16.9102 38.1094V40.2051H14.7422H12.5742V38.1094V36.0136H14.7422H16.9102V38.1094Z" fill="#4A4A4A"/>
<path d="M22.6914 33.8023C22.5758 33.8457 22.3156 34.0191 22.1422 34.1926C21.4484 34.814 21.3906 35.0887 21.3906 38.1527C21.3906 40.8988 21.4051 41.0578 21.723 41.5203C22.3445 42.4453 22.6914 42.532 25.9723 42.4887C28.6605 42.4453 28.9207 42.4164 29.2965 42.1418C30.1203 41.5348 30.207 41.1445 30.207 38.0371C30.207 34.8863 30.1203 34.5828 29.1664 33.9902C28.7328 33.7301 28.4437 33.7012 25.7988 33.7156C24.209 33.7156 22.807 33.759 22.6914 33.8023ZM27.8945 38.1094V40.2051H25.7988H23.7031V38.1094V36.0137H25.7988H27.8945V38.1094Z" fill="#4A4A4A"/>
<path d="M38.5899 35.9559C37.9973 36.1727 37.6938 36.4039 37.4192 36.8375C37.1445 37.2711 37.1301 37.5023 37.1734 40.0605L37.2168 42.8355L37.7516 43.327L38.3008 43.8184H41.0469C45.1805 43.8184 45.166 43.8328 45.166 39.916C45.166 37.5891 45.1371 37.1844 44.9059 36.8375C44.3711 36.0137 44.0965 35.9414 41.3359 35.9125C39.9484 35.898 38.7055 35.9125 38.5899 35.9559ZM42.9258 39.8437V41.5059H41.1914H39.457V39.8437V38.1816H41.1914H42.9258V39.8437Z" fill="#4A4A4A"/>
<path d="M48.0277 36.0281C47.4063 36.216 46.8715 36.8953 46.7559 37.6758C46.6981 38.0227 46.6836 39.2801 46.7125 40.4508C46.7992 43.7605 46.857 43.8184 50.875 43.8184H53.6211L54.1703 43.327L54.7051 42.8355L54.7485 40.0605C54.7918 37.4734 54.7774 37.2711 54.4883 36.823C53.9969 36.0137 53.3899 35.8691 50.7594 35.8836C49.5164 35.8836 48.2879 35.9559 48.0277 36.0281ZM52.4649 39.8438V41.5059H50.7305H48.9961V39.8438V38.1816H50.7305H52.4649V39.8438Z" fill="#4A4A4A"/>
<path d="M57.798 35.9992C56.4973 36.4184 56.3672 36.7797 56.3672 39.916C56.3672 42.5898 56.4395 42.9367 57.1766 43.5148C57.5379 43.8039 57.7402 43.8184 60.3418 43.8184C62.9867 43.8184 63.1457 43.8039 63.6082 43.4859C64.3164 43.009 64.4465 42.4887 64.4465 39.8438C64.4609 37.3 64.3453 36.823 63.5504 36.2449C63.1746 35.9703 62.9145 35.9414 60.6598 35.9125C59.2867 35.898 58.0004 35.9414 57.798 35.9992ZM62.1484 39.8438V41.5059H60.4141H58.6797V39.8438V38.1816H60.4141H62.1484V39.8438Z" fill="#4A4A4A"/>
<path d="M37.7516 45.3215L37.2168 45.8129L37.1734 48.5301C37.1156 51.5219 37.1879 51.8687 37.925 52.3891C38.3441 52.6926 38.5176 52.707 41.1191 52.707C43.5184 52.707 43.923 52.6781 44.2699 52.4469C45.1082 51.8977 45.166 51.6664 45.166 48.7324C45.166 44.8156 45.1805 44.8301 41.0469 44.8301H38.3008L37.7516 45.3215ZM42.9258 48.8047V50.4668H41.1914H39.457V48.8047V47.1426H41.1914H42.9258V48.8047Z" fill="#4A4A4A"/>
<path d="M47.6809 45.0469C46.8281 45.5094 46.7559 45.8129 46.7559 48.7324C46.7559 51.6664 46.8137 51.8977 47.652 52.4469C47.9988 52.6781 48.4035 52.707 50.8027 52.707C53.4043 52.707 53.5777 52.6926 53.9969 52.3891C54.734 51.8687 54.8063 51.5219 54.7484 48.5301L54.7051 45.8129L54.1703 45.3215L53.6211 44.8301H50.8461C48.7215 44.8445 47.9699 44.8879 47.6809 45.0469ZM52.4648 48.8047V50.4668H50.7305H48.9961V48.8047V47.1426H50.7305H52.4648V48.8047Z" fill="#4A4A4A"/>
<path d="M57.1766 45.1336C56.4395 45.7117 56.3672 46.0586 56.3672 48.7324C56.3672 51.6953 56.4828 52.0711 57.4945 52.5191C58.0582 52.7793 58.3906 52.7937 60.6309 52.7504C62.9 52.707 63.1746 52.6781 63.5504 52.4035C64.3453 51.8254 64.4609 51.3484 64.4465 48.8047C64.4465 46.1597 64.3164 45.6394 63.6082 45.1625C63.1457 44.8445 62.9867 44.8301 60.3418 44.8301C57.7402 44.8301 57.5379 44.8445 57.1766 45.1336ZM62.1484 48.8047V50.4668H60.4141H58.6797V48.8047V47.1426H60.4141H62.1484V48.8047Z" fill="#4A4A4A"/>
<path d="M11.6348 47.345C11.1 47.5907 10.623 48.0965 10.4207 48.6313C10.334 48.8625 10.2617 50.1489 10.2617 51.6375C10.2617 54.586 10.3484 54.9618 11.2156 55.6121L11.7504 56.0313L14.4242 56.0746C17.5027 56.1325 18.0809 56.0024 18.7602 55.1207L19.1504 54.6149V51.6086C19.1504 48.8047 19.1359 48.5879 18.8469 48.2121C18.1387 47.2438 18.023 47.2149 14.9156 47.186C12.7621 47.1571 11.9672 47.186 11.6348 47.345ZM16.9102 51.6231V53.791H14.7422H12.5742V51.6231V49.4551H14.7422H16.9102V51.6231Z" fill="#4A4A4A"/>
<path d="M22.5469 47.4605C21.4773 48.0098 21.3906 48.3277 21.3906 51.5941C21.3906 54.7738 21.4773 55.1496 22.3879 55.6988C22.8793 56.0168 23.0527 56.0312 25.7988 56.0312C29.0652 56.0312 29.3254 55.959 29.9035 54.9473C30.1781 54.4414 30.207 54.1812 30.207 51.5941C30.207 48.3422 30.1203 48.0098 29.0508 47.4605C28.4582 47.1715 28.227 47.1426 25.7988 47.1426C23.3707 47.1426 23.1395 47.1715 22.5469 47.4605ZM27.8945 51.623V53.791H25.7988H23.7031V51.623V49.4551H25.7988H27.8945V51.623Z" fill="#4A4A4A"/>
<path d="M38.0551 53.9355C37.2313 54.4269 37.1445 54.7883 37.1445 57.65C37.1445 59.948 37.1734 60.266 37.4336 60.6851C37.9539 61.5379 38.2863 61.6246 41.3359 61.5668L44.0676 61.5234L44.5156 61.0898C45.1516 60.4828 45.2672 59.8324 45.2094 57.2742C45.1371 53.7476 45.0215 53.6465 41.0902 53.6465C38.7922 53.6465 38.4742 53.6754 38.0551 53.9355ZM42.9258 57.6211V59.2832H41.1914H39.457V57.6211V55.959H41.1914H42.9258V57.6211Z" fill="#4A4A4A"/>
<path d="M47.7531 53.8777C46.9148 54.2968 46.7559 54.7593 46.7125 57.2742C46.6547 59.8324 46.7703 60.4828 47.4062 61.0898L47.8543 61.5234L50.5859 61.5668C53.6355 61.6246 53.968 61.5379 54.4883 60.6851C54.7484 60.266 54.7773 59.948 54.7773 57.6211C54.7773 54.7304 54.6762 54.3258 53.7801 53.8633C53.1586 53.5453 48.4035 53.5453 47.7531 53.8777ZM52.4648 57.6211V59.2832H50.7305H48.9961V57.6211V55.959H50.7305H52.4648V57.6211Z" fill="#4A4A4A"/>
<path d="M57.2777 53.9355C56.4539 54.427 56.3672 54.7883 56.3672 57.65C56.3672 61.509 56.4539 61.5957 60.4285 61.5957C63.348 61.5957 63.6949 61.4945 64.1719 60.4973C64.4609 59.9191 64.4754 59.6734 64.432 57.3754C64.3598 53.6898 64.3164 53.6465 60.3129 53.6465C58.0148 53.6465 57.6969 53.6754 57.2777 53.9355ZM62.1484 57.6211V59.2832H60.4141H58.6797V57.6211V55.959H60.4141H62.1484V57.6211Z" fill="#4A4A4A"/>
<path d="M58.9687 2.78597C55.3699 3.30628 52.2914 6.12464 51.3664 9.70902C51.034 11.0387 51.1496 14.0016 51.5976 15.418C52.5516 18.4387 54.7051 21.5317 57.5379 23.9598C59.4457 25.593 60.1394 25.8676 61.209 25.4629C62.2062 25.0871 65.516 21.9075 66.8023 20.1153C68.1031 18.2797 69.375 15.4614 69.375 14.4063C69.375 13.9004 68.768 13.3223 68.2621 13.3223C67.6117 13.3223 67.2359 13.6836 66.9758 14.5942C66.3398 16.8489 64.6633 19.3493 62.3363 21.5606C60.4719 23.3239 60.4574 23.3383 59.5902 22.6301C58.4629 21.7196 56.6707 19.8407 55.9047 18.7422C54.9074 17.3403 53.968 15.3891 53.6789 14.1028C53.5199 13.3512 53.4621 12.5852 53.5055 11.6168C53.5488 10.3594 53.6066 10.0993 54.098 9.08753C55.4277 6.28363 58.4484 4.60707 61.3391 5.06956C63.7238 5.44535 65.6894 6.93402 66.759 9.17425C67.0769 9.8391 67.4383 10.4317 67.5684 10.4895C68.0019 10.6485 68.4644 10.5762 68.8547 10.2727C69.4184 9.8391 69.3605 9.13089 68.6523 7.74339C66.8457 4.17347 62.9723 2.19339 58.9687 2.78597Z" fill="#4A4A4A"/>
<path d="M58.752 7.00624C57.4512 7.43983 56.3961 8.37928 55.6879 9.75233C55.341 10.4172 55.2977 10.6629 55.2832 11.9492C55.2832 13.25 55.3266 13.4812 55.6879 14.2183C56.2082 15.2879 57.4078 16.3863 58.5063 16.791C59.5035 17.1668 61.1945 17.2101 62.1195 16.8777C64.6199 15.9816 66.0652 13.2933 65.4148 10.7207C64.9957 9.11639 64.1574 8.04686 62.6688 7.2953C62.0617 6.97733 61.7004 6.90506 60.6309 6.8617C59.8215 6.8328 59.1133 6.89061 58.752 7.00624ZM61.6859 9.43436C62.8277 9.99803 63.5215 11.5445 63.1602 12.7008C62.4953 14.7387 60.2117 15.4758 58.6074 14.1461C55.9914 11.9926 58.6219 7.96014 61.6859 9.43436Z" fill="#4A4A4A"/>
</svg>

<svg xmlns="http://www.w3.org/2000/svg" width="74" height="74" fill="none"><path fill="#4A4A4A" d="M7.227.213c-.709.232-1.923 1.475-2.14 2.212-.13.462-.173 7.804-.173 32.201v31.595h-.766C1.677 66.22 0 67.825 0 70.21c0 .81.072 1.17.376 1.763.433.867 1.387 1.677 2.226 1.908.36.101 12.082.13 34.702.115 32.36-.043 34.196-.057 34.63-.303.693-.361 1.488-1.214 1.791-1.893.405-.882.362-2.414-.072-3.353-.636-1.374-2.081-2.226-3.801-2.226h-.766l-.029-17.185-.043-17.185-.448-.563c-.897-1.113-.203-1.056-11.65-1.056H46.684V16.531c0-13.456-.015-13.702-.304-14.338-.39-.867-.925-1.416-1.792-1.82l-.723-.348L25.8.04C13.066.054 7.588.098 7.227.213m36.725 2.544.42.42v27.055H34.355l-.622.362c-.434.26-.709.578-.983 1.113l-.376.751V45.35c0 12.82 0 12.878.303 13.268.376.477 1.272.535 1.72.087.29-.289.29-.477.29-13.051 0-7.776.057-12.834.144-12.965.116-.187 2.052-.216 15.754-.26 10.695-.014 15.71.015 15.898.116.29.159.29.42.29 16.91v16.766H34.687v-1.88c0-1.69-.03-1.907-.29-2.167-.448-.448-1.344-.39-1.72.087-.274.346-.303.578-.303 2.167v1.793H7.227V3.176l.419-.419.419-.42h35.468zM70.82 68.75c1.157.593 1.186 2.226.044 2.804-.448.231-67.28.231-67.728 0-.52-.275-.824-.752-.824-1.33 0-.708.188-1.055.767-1.402.448-.289 1.04-.289 33.892-.289 29.383 0 33.474.03 33.85.217"/><path fill="#4A4A4A" d="M11.765 6.688c-.593.174-1.315.998-1.431 1.605-.058.26-.072 1.662-.043 3.107.043 2.876.086 3.006 1.04 3.714.362.275.636.304 3.093.347 3.137.058 3.599-.043 4.278-.881l.448-.564V11.04c0-3.31-.028-3.426-.997-4.12-.419-.303-.607-.317-3.194-.346-1.503-.015-2.948.029-3.194.115m5.145 4.322v2.168h-4.336V8.842h4.336zM22.547 6.862c-1.07.563-1.156.881-1.156 4.148 0 3.28.086 3.599 1.156 4.148.593.303.824.332 3.266.332s2.66-.029 3.238-.332c1.098-.578 1.17-.867 1.127-4.293-.043-3.353-.087-3.483-1.214-4.047-.52-.26-.867-.289-3.194-.289-2.428 0-2.645.03-3.223.333m5.348 4.148v2.168h-4.192V8.842h4.192zM33.878 6.688c-.592.174-1.315.998-1.43 1.605-.059.26-.073 1.662-.044 3.107.043 2.876.087 3.006 1.04 3.714.362.275.636.304 3.093.347 3.137.058 3.6-.043 4.279-.881l.448-.564V11.04c0-3.31-.03-3.426-.998-4.12-.419-.303-.607-.317-3.194-.346-1.503-.015-2.948.029-3.194.115m5.145 4.322v2.168h-4.335V8.842h4.335zM11.375 20.433c-.969.564-1.113 1.099-1.113 4.105 0 2.948.159 3.57 1.04 4.105.434.26.723.289 3.44.289 2.92 0 2.977 0 3.498-.362.882-.607 1.012-1.17.954-4.307-.044-2.977-.087-3.122-1.128-3.83-.448-.303-.607-.318-3.31-.318-2.644 0-2.876.03-3.381.318m5.535 4.09v2.096h-4.336v-4.191000000000001h4.336zM22.547 20.36c-.275.146-.65.478-.824.753-.318.462-.332.621-.332 3.396 0 2.645.029 2.948.289 3.382.592.968.896 1.04 4.119 1.04 2.63 0 2.934-.028 3.367-.288.954-.593 1.041-.896 1.041-4.047 0-3.108-.087-3.498-.91-4.105-.376-.275-.637-.303-3.325-.347-2.558-.029-2.977 0-3.425.217m5.348 4.163v2.096h-4.192v-4.191000000000001h4.192zM33.488 20.433c-.968.564-1.113 1.099-1.113 4.105 0 2.948.159 3.57 1.04 4.105.434.26.723.289 3.44.289 3.44 0 3.7-.073 4.206-1.243.275-.593.29-.91.246-3.382-.043-3.021-.087-3.166-1.127-3.874-.448-.303-.607-.318-3.31-.318-2.645 0-2.876.03-3.382.318m5.535 4.09v2.096h-4.335v-4.191000000000001h4.335zM11.346 33.976c-.94.563-1.012.81-1.055 3.888-.044 2.572-.03 2.833.245 3.396.203.42.506.737.882.954.55.304.694.318 3.454.275 2.645-.044 2.92-.073 3.281-.347.954-.708.997-.839 1.04-3.816.044-2.471.03-2.79-.245-3.382-.506-1.17-.766-1.243-4.206-1.243-2.63 0-3.006.03-3.396.275m5.564 4.133v2.096h-4.336v-4.191000000000001h4.336zM22.691 33.802c-.115.044-.375.217-.549.39-.694.622-.751.897-.751 3.96 0 2.747.014 2.906.332 3.368.622.925.968 1.012 4.25.969 2.688-.044 2.948-.073 3.324-.347.823-.607.91-.998.91-4.105 0-3.15-.087-3.454-1.04-4.047-.434-.26-.723-.289-3.368-.274-1.59 0-2.992.043-3.108.086m5.204 4.307v2.096h-4.192v-4.191000000000001h4.192zM38.59 35.956c-.593.217-.896.448-1.17.881-.276.434-.29.665-.247 3.223l.044 2.776.535.491.549.491h2.746c4.134 0 4.119.015 4.119-3.902 0-2.327-.029-2.732-.26-3.078-.535-.824-.81-.897-3.57-.925-1.388-.015-2.63 0-2.746.043m4.336 3.888v1.662h-3.4690000000000003v-3.324h3.4690000000000003zM48.028 36.028c-.622.188-1.157.867-1.272 1.648-.058.347-.072 1.604-.044 2.775.087 3.31.145 3.367 4.163 3.367h2.746l.55-.491.534-.491.044-2.776c.043-2.587.028-2.789-.26-3.237-.492-.81-1.1-.954-3.73-.94-1.243 0-2.471.073-2.731.145m4.437 3.816v1.662h-3.4690000000000003v-3.324h3.4690000000000003zM57.798 36c-1.3.418-1.43.78-1.43 3.916 0 2.674.072 3.02.809 3.599.36.289.563.303 3.165.303 2.645 0 2.804-.014 3.266-.332.708-.477.839-.997.839-3.642.014-2.544-.102-3.021-.897-3.6-.375-.274-.636-.303-2.89-.331-1.373-.015-2.66.028-2.862.086m4.35 3.844v1.662H58.68v-3.324h3.468zM37.752 45.322l-.535.49-.044 2.718c-.057 2.992.015 3.339.752 3.86.42.303.593.317 3.194.317 2.4 0 2.804-.029 3.15-.26.84-.55.897-.78.897-3.715 0-3.916.015-3.902-4.12-3.902h-2.745zm5.174 3.483v1.662h-3.4690000000000003v-3.324h3.4690000000000003zM47.68 45.047c-.852.462-.924.766-.924 3.685 0 2.934.058 3.166.896 3.715.347.231.752.26 3.15.26 2.602 0 2.776-.014 3.195-.318.737-.52.81-.867.751-3.859l-.043-2.717-.535-.492-.549-.49h-2.775c-2.124.013-2.876.057-3.165.216m4.785 3.758v1.662h-3.4690000000000003v-3.324h3.4690000000000003zM57.177 45.134c-.737.578-.81.925-.81 3.598 0 2.963.116 3.34 1.128 3.787.563.26.896.275 3.136.231 2.269-.043 2.544-.072 2.92-.346.794-.579.91-1.056.895-3.6 0-2.644-.13-3.165-.838-3.642-.462-.318-.621-.332-3.266-.332-2.602 0-2.804.014-3.165.304m4.971 3.67v1.663H58.68v-3.324h3.468zM11.635 47.345c-.535.246-1.012.752-1.214 1.286-.087.231-.16 1.518-.16 3.007 0 2.948.087 3.324.955 3.974l.534.42 2.674.043c3.079.057 3.657-.073 4.336-.954l.39-.506v-3.006c0-2.804-.014-3.021-.303-3.397-.708-.968-.824-.997-3.931-1.026-2.154-.029-2.949 0-3.281.159m5.275 4.278v2.168h-4.336v-4.336h4.336zM22.547 47.46c-1.07.55-1.156.868-1.156 4.134 0 3.18.086 3.556.997 4.105.491.318.665.332 3.41.332 3.267 0 3.527-.072 4.106-1.084.274-.506.303-.766.303-3.353 0-3.252-.087-3.584-1.156-4.133-.593-.29-.824-.318-3.252-.318s-2.66.029-3.252.318m5.348 4.163v2.168h-4.192v-4.336h4.192zM38.055 53.936c-.824.49-.91.852-.91 3.714 0 2.298.028 2.616.289 3.035.52.853.852.94 3.902.882l2.732-.044.448-.433c.636-.607.751-1.258.693-3.816-.072-3.526-.187-3.627-4.119-3.627-2.298 0-2.616.028-3.035.288m4.87 3.685v1.662h-3.468V55.96h3.4690000000000003zM47.753 53.878c-.838.419-.997.881-1.04 3.396-.058 2.558.057 3.209.693 3.816l.448.433 2.732.044c3.05.058 3.382-.03 3.902-.882.26-.419.29-.737.29-3.064 0-2.89-.102-3.295-.998-3.758-.621-.318-5.376-.318-6.027.015m4.712 3.743v1.662h-3.4690000000000003V55.96h3.4690000000000003zM57.278 53.936c-.824.491-.91.852-.91 3.714 0 3.859.086 3.946 4.06 3.946 2.92 0 3.267-.101 3.744-1.099.289-.578.303-.824.26-3.122-.072-3.685-.116-3.728-4.12-3.728-2.297 0-2.615.028-3.034.288m4.87 3.685v1.662H58.68V55.96h3.468zM58.969 2.786c-3.6.52-6.678 3.339-7.603 6.923-.332 1.33-.216 4.293.232 5.709.954 3.02 3.107 6.114 5.94 8.542 1.908 1.633 2.601 1.908 3.671 1.503.997-.376 4.307-3.556 5.593-5.348 1.301-1.835 2.573-4.654 2.573-5.709 0-.506-.607-1.084-1.113-1.084-.65 0-1.026.362-1.286 1.272-.636 2.255-2.313 4.755-4.64 6.967-1.864 1.763-1.879 1.777-2.746 1.07-1.127-.911-2.92-2.79-3.685-3.889-.998-1.402-1.937-3.353-2.226-4.64-.16-.75-.217-1.517-.174-2.485.044-1.258.102-1.518.593-2.53 1.33-2.803 4.35-4.48 7.241-4.017 2.385.375 4.35 1.864 5.42 4.104.318.665.68 1.258.81 1.316.433.159.895.086 1.286-.217.563-.434.505-1.142-.203-2.53-1.806-3.57-5.68-5.55-9.683-4.957"/><path fill="#4A4A4A" d="M58.752 7.006c-1.3.434-2.356 1.373-3.064 2.746-.347.665-.39.91-.405 2.197 0 1.301.044 1.532.405 2.27.52 1.069 1.72 2.167 2.818 2.572.998.376 2.688.42 3.614.087 2.5-.896 3.945-3.585 3.295-6.157-.42-1.605-1.258-2.674-2.746-3.426-.607-.318-.969-.39-2.038-.433-.81-.03-1.518.029-1.879.144m2.934 2.428c1.142.564 1.836 2.11 1.474 3.267-.665 2.038-2.948 2.775-4.553 1.445-2.616-2.153.015-6.186 3.079-4.712"/></svg>
